X:1
T:Title
%%score { ( 1 3 ) | ( 2 4 ) }
L:1/8
Q:1/4=87
M:6/8
K:D
V:1 treble nm="Grand Piano"
V:3 treble 
V:2 bass 
V:4 bass 
V:1
 [FA][GB][FA] [DF][EG][FA] | B3 d3 | cBA [EG][GB][FA] | [DF]6 | [EF][EF][EF] F^Ac | [Fd]3 [DB]3 | %6
w: I.~H.~Meredith * * * * *||||||
 cEA BcB | [A,A]6 | A-[FA-][FA] [DFB]3 | B-[FB-][FB] [DFc]3 | c-[Fc]d c-[Fc]B | G6 | G3 z3 | %13
w: |||||||
 A3 z3 | .c3 .B3 | A6 | A3 z3 | B3 z3 | .c3 .e3 | B6 | [GB][Ac][Bd] [Bd][Ac][GB] | %21
w: ||||||||
 [FA][=F^G][^FA] F=GA | B3 c3 | d6 |] %24
w: |||
V:2
 [D,D][D,D][D,D] [D,A,][D,A,][D,D] | [G,DG]3 [G,B,G]3 | %2
 [A,G][A,G][A,F][K:bass] [A,,A,][A,,A,][A,,A,] | [D,A,]6 | %4
 [C,^A,][C,A,][C,A,] [F,A,E][F,CE][F,A,E] | [B,,B,]3 [B,,B,]3 | %6
 [E,A,E][E,A,C][E,A,C] [E,^G,D][E,G,E][E,G,D] | z3 .G3 | z DD [A,,,A,,]3 | z DD [A,,,A,,]3 | %10
 z[K:treble] D[DF][K:bass] z D[DF] | z B,C z B,A, | z A,A, [A,,,A,,]3 | z CC [A,,,A,,]3 | %14
 z[K:treble] C[DG][K:bass] z B,[CG] | z ED z B,C | z DD [A,,,A,,]3 | z DD [A,,,A,,]3 | %18
 z[K:treble] F[FA][K:bass] z E[DA] | [G,,G,]2 [F,,F,] .[E,,E,]3 | %20
 [G,D][G,C][G,B,] [G,B,][G,C][G,D] | [D,D][D,B,][D,A,] [D,A,D][E,A,D][F,A,D] | %22
 [G,D]2 [E,B,] [A,E]2 [A,,A,] | A,G,B, .A,3 |] %24
V:3
 x6 | x6 | x6 | x6 | x6 | x6 | x6 | C3 z3 | .[DF]3 z3 | .[DF]3 z3 | .[DF]3 .[DF]3 | %11
 [A,C]DE [CE]DC | [A,C]CC [A,CA]3 | [CG]GG [CGB]3 | [CG]Gd [B,G]Gc | [DF]GF [CE]DE | %16
 [DF]FF [DFB]3 | [DF]FF [DFc]3 | [FA]Ad [EA]Ad | [DG][DG][^DA] .[EG]3 | x6 | x6 | z2 G z2 G | %23
 FEG .F3 |] %24
V:4
 x6 | x6 | x3[K:bass] x3 | x6 | x6 | x6 | x6 | A,,6 | [D,,D,]3 z3 | [D,,D,]3 z3 | %10
 [D,,D,]3[K:treble][K:bass] [A,,,A,,]3 | [E,,E,]3 [A,,,A,,]3 | [E,,E,]3 z3 | [E,,E,]3 z3 | %14
 [E,,E,]3[K:treble][K:bass] [A,,,A,,]3 | [D,,D,]3 [A,,,A,,]3 | [D,,D,]3 z3 | [D,,D,]3 z3 | %18
 [D,,D,]3[K:treble][K:bass] [F,,F,]3 | x6 | x6 | x6 | x6 | D,6 |] %24

